!!!COM: Bach, Johann Sebastian
!!!OTL: Sinfonia No. 13; in a minor; BWV 799
!! Three-part sinfonia
!! Bach-Gesellschaft edition, pp.38-39
!! Performance duration: 1:43; performance tempo: 55.9 quarter-notes per minute.
!! (Andras Schiff, piano, "Two-Part Inventions BWV 772a-786; Three-part
!! Inventions BWV 787-801" Decca 411 974-2)
**kern	**kern	**kern
*staff2	*staff1	*staff1
*M3/8	*M3/8	*M3/8
*MM55.9	*MM55.9	*MM55.9
*a:	*a:	*a:
=1	=1	=1
8AA	4.r	4a
8A	.	.
8G#	.	8b
=2	=2	=2
8A	4.r	4cc
8E	.	.
8F	.	8dd
=3	=3	=3
8D	4.r	8cc
8E	.	4b
8EE	.	.
=4	=4	=4
8AA	4.r	16a
.	.	16b
16A	.	16cc
16B	.	16dd
16c	.	16ee
16A	.	16ff#
=5	=5	=5
8e	4e	16gg
.	.	16ff#
8E	.	16gg
.	.	16aa
8d#	8f#	16bb
.	.	16ccc
=6	=6	=6
8e	4g	16bb
.	.	16aa
8B	.	16gg
.	.	16ff#
8c	8a	16ee
.	.	16dd#
=7	=7	=7
8A	8g	16ee
.	.	16ff#
8B	4f#	8.dd#
8BB	.	.
.	.	16ee
=8	=8	=8
4E	16e	4ee
.	16f#	.
.	16g	.
.	16a	.
8r	16b	[8gg
.	16cc#	.
=9	=9	=9
4.r	[4.dd	16gg]
.	.	16bb-
.	.	16aa
.	.	16gg
.	.	16ff
.	.	16ee
=10	=10	=10
4.r	16dd]	[4.ff
.	16ee	.
.	16dd	.
.	16cc	.
.	16b	.
.	16a	.
=11	=11	=11
4.r	4.g#	16ff]
.	.	16ff
.	.	16ee
.	.	16dd
.	.	16cc
.	.	16b
=12	=12	=12
4.r	16a	16cc
.	16f	16dd
.	16e	16cc
.	16d	16b
.	16c	16a
.	16B	16g#
=13	=13	=13
4AA	16c	[4.a
.	16B	.
.	16c	.
.	16d	.
8BB	16e	.
.	16f	.
=14	=14	=14
4C	16e	8.a]
.	16d	.
.	16c	.
.	16B	16b
8D	16A	16cc
.	16G#	16dd
=15	=15	=15
8C	16A	16ee
.	16B	16ff
4BB	4G#M	16ee
.	.	16dd
.	.	16cc
.	.	16b
=16	=16	=16
16AA	8A	4.cc
16BB	.	.
16C	8e	.
16D	.	.
16E	[8a	.
16F#	.	.
=17	=17	=17
16G	8a]	4.b
16A	.	.
16B	8d	.
16c	.	.
16d	[8g	.
16e	.	.
=18	=18	=18
4.f	8g]	16a
.	.	16g
.	16f	16a
.	16g	16b
.	16a	16cc
.	16b	16dd
=19	=19	=19
4.e	8cc	16ee
.	.	16ff
.	16e	16gg
.	16f	16aa
.	16g	16bb
.	16a	16ccc
=20	=20	=20
4.d	8b	16ff
.	.	16aa
.	8a	16gg
.	.	16ff
.	8b	16ee
.	.	16dd
=21	=21	=21
16C	8cc	8ee
16E	.	.
16G	8e	8cc
8c	.	.
.	8f	8dd
16B	.	.
=22	=22	=22
16c	4g	4ee
16G	.	.
16E	.	.
8C	.	.
.	8a	8ff
16BB	.	.
=23	=23	=23
16C	8g	8ee
16E	.	.
16G	4f	4dd
16c	.	.
16B	.	.
16c	.	.
=24	=24	=24
8C	8e	16cc
.	.	16g
8c	8r	16a
.	.	16b
8B	8r	16cc
.	.	16dd
=25	=25	=25
16A	8r	4ee
16a	.	.
16g	8cc	.
16f	.	.
16e	8dd	8ff
16d	.	.
=26	=26	=26
16c	4ee	4gg
16e	.	.
16g	.	.
8cc	.	.
.	8ff	8aa
16b	.	.
=27	=27	=27
16cc	8ee	8gg
16c	.	.
16cc	[4dd	4ff
16b	.	.
16a	.	.
16b	.	.
=28	=28	=28
8cc	16dd]	[4.ee
.	16dd	.
8c	16cc	.
.	16b-	.
8c#	16a	.
.	16g	.
=29	=29	=29
16d	8f	8ee]
16g	.	.
16f	[4a	8dd
16e	.	.
16d	.	8ee
16c#	.	.
=30	=30	=30
16d	8a]	4ff
16e	.	.
16d	8a	.
16c	.	.
16B-	8cc#	8gg
16A	.	.
=31	=31	=31
16G	4dd	8ff
16F	.	.
16G	.	4ee
16B-	.	.
16A	8cc#	.
16G	.	.
=32	=32	=32
16F	8dd	16dd
16G	.	16a
16F	8r	16b
16E	.	16cc#
16D	8r	16dd
16C#	.	16ee
=33	=33	=33
16D	8r	4ff
16F	.	.
16A	8dd	.
8d	.	.
.	8ee	8gg
16c#	.	.
=34	=34	=34
16d	4ff	4aa
16A	.	.
16F	.	.
8D	.	.
.	8gg	8bb-
16C#	.	.
=35	=35	=35
16D	8ff	8aa
16F	.	.
16A	[4ee	4ggM
16d	.	.
16c#	.	.
16d	.	.
=36	=36	=36
8D	8ee]	16ff
.	.	32aa
.	.	32gg
8F	8dd	16ff
.	.	16aa
8A	8cc#	16ee
.	.	16aa
=37	=37	=37
16D	16dd	[4.ff
32F	32dd	.
32E	32ccn	.
16D	16b	.
16F	16dd	.
16C	16a	.
16F	16dd	.
=38	=38	=38
8BB	8g	16ff]
.	.	32gg
.	.	32ff
8C	8cc	16ee
.	.	16gg
8G	8b	16dd
.	.	16gg
=39	=39	=39
16c	16cc	[4.ee
32e	32cc	.
32d	32b	.
16c	16a	.
16e	16cc	.
16B	16g	.
16e	16cc	.
=40	=40	=40
8A	8f#	16ee]
.	.	32dd
.	.	32cc
8B	8g	16b
.	.	16dd
8d	8f#	16a
.	.	16dd
=41	=41	=41
8G	4g	16b
.	.	16b
8GG	.	16dd
.	.	8gg
8AA	8r	.
.	.	16ff#
=42	=42	=42
4BB	8r	16gg
.	.	16dd
.	8G	16b
.	.	8g
8C	8A	.
.	.	16f#
=43	=43	=43
8BB	4B	16g
.	.	16d
4AA	.	16e
.	.	16d
.	8c	16e
.	.	16f#
=44	=44	=44
8GG	8B	16g
.	.	16dd
8G	[8A	16cc
.	.	16b
8F#	8A_	16cc
.	.	16dd
=45	=45	=45
4G	16A]	8b
.	16G	.
.	16A	8cc
.	16G	.
8Fn	16A	8dd
.	16B	.
=46	=46	=46
4E	16c	8g
.	16g	.
.	16f	8a
.	16e	.
8D	16f	8b
.	16g	.
=47	=47	=47
16C	8e	4cc
16E	.	.
16F#	4d	.
16E	.	.
16F#	.	[8b
16G#	.	.
=48	=48	=48
16A	8c	16b]
16E	.	8a
16D	8B	.
16C	.	8a
16D	8B	.
16E	.	16g#
=49	=49	=49
4C	8E	16a
.	.	16cc
.	8A	16ee
.	.	8aa
8E	8B	.
.	.	16gg#
=50	=50	=50
8A	4c	16aa
.	.	16ee
8Gn	.	16cc
.	.	8a
8F	8d	.
.	.	16g#
=51	=51	=51
4E	8c	16a
.	.	16cc
.	[4B	16ee
.	.	16aa
8D	.	16gg#
.	.	16bb
=52	=52	=52
4C	16B]	8ee
.	16E	.
.	16F#	8a
.	16G#	.
8BB	16A	8b
.	16G#	.
=53	=53	=53
4AA	16A	4cc
.	16c	.
.	16e	.
.	8a	.
8BB	.	8dd
.	16g#	.
=54	=54	=54
4C	16a	4ee
.	16e	.
.	16c	.
.	8A	.
8D	.	8ff
.	16G#	.
=55	=55	=55
8C	16A	8ee
.	16c	.
4BB	16e	4dd
.	16a	.
.	16g#	.
.	16a	.
=56	=56	=56
8AA	16A	8cc
.	32cc	.
.	32b	.
8C	16a	[4ee
.	16cc	.
8AA	16gn	.
.	16cc	.
=57	=57	=57
8D	16f#	8ee]
.	32b	.
.	32a	.
8BB	16g#	[4dd
.	16b	.
8AA	16f#	.
.	16b	.
=58	=58	=58
8GG#	[4.e	16dd]
.	.	32ee
.	.	32dd
8AA	.	16cc
.	.	16ee
8GGn	.	16b
.	.	16ee
=59	=59	=59
8FF#	8e]	16a
.	.	32dd
.	.	32cc
8FFn	[4d	16b
.	.	16dd
8F	.	16a
.	.	16dd
=60	=60	=60
[4.E	16d]	8g#
.	32e	.
.	32d	.
.	16c	8a
.	16e	.
.	16B	8b
.	16e	.
=61	=61	=61
16E]	8A	4cc
32E	.	.
32D	.	.
16C	8a	.
16E	.	.
16BB	8g#	8dd
16E	.	.
=62	=62	=62
16AA	8a	8cc
32B	.	.
32A	.	.
16G#	[4d	[4b
16B	.	.
16E	.	.
16G#	.	.
=63	=63	=63
8C	16d]	8b]
.	32ee	.
.	32dd	.
8D	16cc	8aa
.	16ee	.
8E	16b	8gg#
.	16ee	.
=64	=64	=64
4.AA;	4.cc#;	4.aa;
====	====	====
*-	*-	*-
